resources/light/document.svg

<svg xmlns="http://www.w3.org/2000/svg" viewBox="0 0 16 16" enable-background="new 0 0 16 16"><style type="text/css">.icon-canvas-transparent{opacity:0;fill:#F6F6F6;} .icon-vs-out{fill:#F6F6F6;} .icon-vs-bg{fill:#424242;} .icon-vs-fg_x0020_2{fill:#F0EFF1;}</style><path class="icon-canvas-transparent" d="M16 16h-16v-16h16v16z" id="canvas"/><path class="icon-vs-out" d="M15 16h-13v-16h8.621l4.379 4.379v11.621z" id="outline" style="display: none;"/><path class="icon-vs-fg_x0020_2" d="M13 14h-9v-12h5v4h4v8zm-3-9v-2.793l2.793 2.793h-2.793z" id="iconFg" style="display: none;"/><path class="icon-vs-bg" d="M3 1v14h11v-10.207l-3.793-3.793h-7.207zm10 13h-9v-12h5v4h4v8zm-3-9v-2.793l2.793 2.793h-2.793z" id="iconBg"/></svg>

<svg xmlns="http://www.w3.org/2000/svg" viewBox="0 0 16 16"><style>.icon-canvas-transparent{opacity:0;fill:#f6f6f6}.icon-vs-out{fill:#f6f6f6}.icon-vs-bg{fill:#424242}.icon-vs-fg{fill:#f0eff1}</style><path class="icon-canvas-transparent" d="M16 16H0V0h16v16z" id="canvas"/><path class="icon-vs-out" d="M15 16H2V0h8.621L15 4.379V16z" id="outline"/><path class="icon-vs-fg" d="M13 14H4V2h5v4h4v8zm-3-9V2.207L12.793 5H10z" id="iconFg"/><path class="icon-vs-bg" d="M3 1v14h11V4.793L10.207 1H3zm10 13H4V2h5v4h4v8zm-3-9V2.207L12.793 5H10z" id="iconBg"/></svg>
